X:22
T:Carcher's March
R:march
Z:id:hn-march-22
M:2/4
L:1/8
K:Amix
A2 A2 | A2 A2 :|2 A2 A


*****************************


13900 0 1.2817684 

<startion (3/86
K:G
GB | d2 d2 | BA BG | BG BG | BG AG | BG BG | BG BG | BG BG | BG BG | AG BG | BG BG | 


*****************************


14000 0 1.8607521 

<start>
